X:100
T:Echoes of Oban 
C:Joe Buchanan's Scottish Tome - Page 126.0
I:126 0
Z:Carl Allison
C:Donald MacPherson
R:Jig
L:1/8
M:6/8
K:D
e2 | "D"d>BA "A"A>AA | "G"d>BB "A"B2 G | "D"d>BA "A d"A>AA | "E7"a>ff "A7"e2 f |
"D"d>BA "A"A>AA | "G"d>BB "D  g"B2 A | "A"c>af "C# a7"e2 f | "D"e>dd d2 :|
A | "D"d>ff "A d"a2 f | "D"a>df B>AA | d>ff "A d"a2 f | "E7"a>ff "A"e2 A |
"D"d>ff a2 "A d"f | "F# d"a>df "G"B>AA | "A7"c<af "C# a7"e2 f | "D"e>dd d2 :|
f | "D"A>AA2 "G"B>BB | "D"G>dd "A"B>AA | "D"A>AA "A d"d>ff | "E7"a>ff "A7"e2 f |
"D"A>AA "G"B>BB | "Em m"G>dd "A"B>AA | "Em m"c<af "E7"e2 f | "D"e>dd d2 :|
f | "D"a>ff "D d"a>df | "G"G>dd "A"B>AA | "D"a>ff "D d"a>df | "E7"a>ff "A7"e2 f |
"D"a>ff "D d"a>df | "G"G>dd "A"B>AA | "Em m"c<af "A7"e2 f | "D"e>dd d2 f |
"D"a>ff "D d"a>df | "G"G>dd "A"B>AA | "D"a>ff "D d"a>df | "E7"a>ff "A7"e2 f |
"D d"A>AA "G"B>BB | "Em m"G>dd "A"B>AA | "Em m"c<af "A7"e2 f | "D"e>dd d2 |]

